Numix-GalliumOS/16/actions/gtk-page-setup.svg

<?xml version="1.0" encoding="UTF-8" standalone="no"?>
<svg
   xmlns:dc="http://purl.org/dc/elements/1.1/"
   xmlns:cc="http://creativecommons.org/ns#"
   xmlns:rdf="http://www.w3.org/1999/02/22-rdf-syntax-ns#"
   xmlns:svg="http://www.w3.org/2000/svg"
   xmlns="http://www.w3.org/2000/svg"
   xmlns:sodipodi="http://sodipodi.sourceforge.net/DTD/sodipodi-0.dtd"
   xmlns:inkscape="http://www.inkscape.org/namespaces/inkscape"
   width="16"
   height="16"
   viewBox="0 0 16 16"
   id="svg2"
   version="1.1"
   inkscape:version="0.91 r"
   sodipodi:docname="gtk-page-setup.svg">
  <metadata
     id="metadata16">
    <rdf:RDF>
      <cc:Work
         rdf:about="">
        <dc:format>image/svg+xml</dc:format>
        <dc:type
           rdf:resource="http://purl.org/dc/dcmitype/StillImage" />
      </cc:Work>
    </rdf:RDF>
  </metadata>
  <defs
     id="defs14" />
  <sodipodi:namedview
     pagecolor="#ffffff"
     bordercolor="#666666"
     borderopacity="1"
     objecttolerance="10"
     gridtolerance="10"
     guidetolerance="10"
     inkscape:pageopacity="0"
     inkscape:pageshadow="2"
     inkscape:window-width="1366"
     inkscape:window-height="747"
     id="namedview12"
     showgrid="false"
     inkscape:zoom="14.75"
     inkscape:cx="-6.2033898"
     inkscape:cy="8"
     inkscape:window-x="0"
     inkscape:window-y="21"
     inkscape:window-maximized="1"
     inkscape:current-layer="svg2" />
  <path
     style="fill:#fff;fill-rule:evenodd"
     d="M 3.7142859,0 12.285715,0 C 14,0 14,0 14,1.7777778 L 14,14.222222 C 14,16 14,16 12.285715,16 L 3.7142859,16 C 2.0000001,16 2.0000001,16 2.0000001,14.222222 l 0,-12.4444442 C 2.0000001,0 2.0000001,0 3.7142859,0 z"
     id="path4" />
  <path
     id="path4146"
     d="M 11.787606,10.282834 16,14.465412 14.472549,16 10.249168,11.810097 C 7.5532354,12.575561 5.8206591,10.854185 6.0147962,7.990106 L 9.150282,9.8909459 9.864557,9.1364704 7.9378451,6.0782797 C 10.439641,5.5069292 12.750963,8.1805571 11.787606,10.282834 Z"
     style="fill:#268bd2;fill-opacity:1"
     inkscape:connector-curvature="0" />
</svg>

<svg xmlns="http://www.w3.org/2000/svg" viewBox="0 0 16 16">
 <path d="m 3.714 0 8.571 0 c 1.714 0 1.714 0 1.714 1.778 l 0 12.444 c 0 1.778 0 1.778 -1.714 1.778 l -8.571 0 c -1.714 0 -1.714 0 -1.714 -1.778 l 0 -12.444 c 0 -1.778 0 -1.778 1.714 -1.778 z" style="fill:#fff;fill-rule:evenodd"/>
 <path d="m 11.788 10.283 4.212 4.183 -1.527 1.535 -4.223 -4.19 c -2.696 0.765 -4.429 -0.956 -4.234 -3.82 l 3.135 1.901 0.714 -0.754 -1.927 -3.058 c 2.502 -0.571 4.813 2.102 3.85 4.205" style="fill:#268bd2;fill-opacity:1"/>
</svg>
